X:961
T:Reel 961
M:4/4
K:Gmaj
L:1/8
 (3def |g2dB GBdf|gbaf gfed|e>G (3BAG gdBd| (3efg dB G2 (3def |g2BG GBdg|e>A (3AAA e2df|gabc' e'd'bc'|bgaf g2| (3def |g2bg d'gbg|egdg ac'ba|g2bg d'2bg|egdB BG (3def |g2bg d'gbg|fgag fgef|gabc' d'e'd'c'|bd'af g2|
